X:379
T: Yiqu meijian lan de xin
N: C1414
O: China,Gansu Weixian
S: I, 130 1)]
R: Shange. Nann siqing]
M: 2/4
L: 1/16
K: Ab
F4F2F2 | B4e4 | f8- | f2c2e4 | f8- | f4c2B2 | B4z4 |
B2c2e4 | e4f2c2 | c2B2e4 | c4BAF2- | F4F4 |
c4e4 | cBA4B2 |
F4F2F2 | B4e4 | f8- | f2c2e4 | f8- | f4c2B2 | B4z4 |
B2c2e4 | e4f2c2 | c2B2e4 | c4BAF2- | F4F4

@@@ Tune index: 6380
